markets/TIA.svg

<svg width="43" height="43" viewBox="0 0 43 43" fill="none" xmlns="http://www.w3.org/2000/svg">
<circle cx="21.2362" cy="21.715" r="21" fill="#7B2BF9"/>
<path d="M38.846 17.9769C38.1713 14.8068 36.654 11.8776 34.4541 9.49809C32.2542 7.11854 29.4532 5.37679 26.3465 4.45647C23.2397 3.53616 19.9423 3.47137 16.8018 4.26894C13.6614 5.06651 10.7942 6.69689 8.50258 8.98819C7.68507 9.80597 6.94713 10.6996 6.29873 11.6571C6.10825 11.9119 5.93668 12.1802 5.78539 12.46C4.52471 14.5707 3.70931 16.9172 3.38939 19.355C3.06947 21.7929 3.25181 24.2704 3.92518 26.635C4.59854 28.9997 5.74868 31.2015 7.30478 33.1048C8.86087 35.008 10.79 36.5726 12.9733 37.702C15.1566 38.8314 17.548 39.5018 20.0001 39.6719C22.4522 39.842 24.9132 39.5082 27.2315 38.691C29.5497 37.8739 31.6763 36.5907 33.4801 34.9205C35.2839 33.2503 36.7269 31.2284 37.7201 28.9794C37.828 28.7562 37.9229 28.5271 38.0044 28.293C38.8217 26.199 39.2395 23.9704 39.2362 21.7224C39.2365 20.4798 39.1095 19.2404 38.8572 18.0237C38.8538 18.0081 38.851 17.9925 38.846 17.9769ZM32.6034 9.74255C32.7071 9.84067 32.8097 9.94103 32.9111 10.0425C34.4787 11.6055 35.7155 13.4683 36.548 15.5198C36.5667 15.566 36.5727 15.6164 36.5653 15.6657C36.558 15.7151 36.5375 15.7615 36.5061 15.8002C36.4746 15.839 36.4334 15.8686 36.3867 15.8859C36.3399 15.9033 36.2894 15.9077 36.2403 15.8989C35.7123 15.8104 35.1769 15.7731 34.6417 15.7874C34.4439 15.7915 34.2511 15.725 34.0978 15.5997C33.9446 15.4744 33.841 15.2986 33.8057 15.1039C33.4846 13.303 33.0203 11.6399 32.424 10.188C32.39 10.1055 32.356 10.0235 32.3208 9.9427C32.3044 9.90541 32.3014 9.86359 32.3122 9.82432C32.3231 9.78505 32.3472 9.75073 32.3804 9.72718C32.4137 9.70364 32.454 9.6923 32.4947 9.6951C32.5353 9.6979 32.5737 9.71466 32.6034 9.74255ZM34.3157 20.3074C34.3147 20.2663 34.3269 20.2261 34.3505 20.1925C34.3741 20.1589 34.4078 20.1338 34.4467 20.1208C34.4857 20.1078 34.5277 20.1077 34.5667 20.1204C34.6057 20.1331 34.6397 20.158 34.6635 20.1914C34.7984 20.381 34.9284 20.5713 35.0536 20.7623C35.2194 21.0166 35.3736 21.2693 35.5163 21.5206C35.5595 21.5971 35.5774 21.6854 35.5674 21.7727C35.5574 21.8601 35.52 21.942 35.4605 22.0068C35.2677 22.2186 35.0579 22.4379 34.8312 22.6647C34.7482 22.7477 34.664 22.8319 34.5776 22.9139C34.5536 22.9354 34.5239 22.9495 34.492 22.9545C34.4601 22.9594 34.4275 22.9551 34.3981 22.942C34.3686 22.9288 34.3436 22.9074 34.326 22.8804C34.3084 22.8534 34.299 22.8218 34.299 22.7895C34.3097 22.5186 34.3175 22.2465 34.3224 21.9733C34.3313 21.4135 34.3285 20.8582 34.314 20.3074H34.3157ZM11.6462 8.26897C14.4412 6.26636 17.795 5.19361 21.233 5.20249C22.1437 5.20238 23.0528 5.27696 23.9513 5.42551C24.0044 5.43434 24.0539 5.45838 24.0936 5.49473C24.1334 5.53108 24.1618 5.57818 24.1753 5.63032C24.1889 5.68246 24.1871 5.73742 24.1701 5.78854C24.1531 5.83967 24.1216 5.88476 24.0795 5.91838C23.2173 6.59467 22.4157 7.59546 21.7068 8.89341C21.623 9.04695 21.4896 9.1675 21.3284 9.23536C21.1672 9.30321 20.9878 9.31436 20.8194 9.26696C18.4701 8.60516 16.1581 8.29406 14.0223 8.36877C13.2726 8.39288 12.5258 8.47208 11.7877 8.60572C11.7461 8.6125 11.7034 8.60509 11.6666 8.58466C11.6297 8.56424 11.6007 8.53199 11.5844 8.49311C11.568 8.45423 11.5652 8.41099 11.5765 8.37033C11.5877 8.32967 11.6122 8.29397 11.6462 8.26897ZM9.28848 32.9424C8.94179 32.2872 9.39048 30.7679 11.6696 28.4631C11.7258 28.4064 11.7694 28.3384 11.7976 28.2637C11.8258 28.189 11.8379 28.1091 11.8331 28.0294C11.8283 27.9497 11.8067 27.8718 11.7698 27.801C11.7329 27.7302 11.6815 27.668 11.6189 27.6184C11.5275 27.5465 11.4372 27.474 11.3469 27.4015C11.2375 27.3128 11.0992 27.2678 10.9586 27.2751C10.818 27.2824 10.6851 27.3416 10.5855 27.4411L10.4963 27.5309C9.35704 28.7017 8.55999 29.7833 8.11298 30.7574C8.08362 30.8197 8.03829 30.8731 7.98159 30.9123C7.92489 30.9514 7.85884 30.9748 7.79016 30.9802C7.72148 30.9855 7.65261 30.9725 7.59056 30.9426C7.52851 30.9127 7.47549 30.8668 7.43688 30.8098C5.65543 28.1145 4.70974 24.9529 4.71857 21.7219C4.71808 20.5634 4.83838 19.4081 5.07752 18.2746C5.08462 18.2377 5.10395 18.2042 5.13239 18.1796C5.16083 18.155 5.19672 18.1407 5.23428 18.1391C5.27183 18.1374 5.30885 18.1484 5.33937 18.1704C5.36989 18.1923 5.39211 18.2239 5.40247 18.2601C5.7447 19.3919 6.30263 20.5622 7.07459 21.7453C8.11186 23.3387 9.47966 24.8703 11.1005 26.2753C11.654 26.7548 12.2387 27.2186 12.8479 27.6691C14.1174 28.5994 15.4566 29.4306 16.8537 30.1552C17.4869 30.4842 18.1033 30.7981 18.7349 31.0824C18.9086 31.1611 19.0963 31.2044 19.287 31.2095C19.4776 31.2147 19.6674 31.1817 19.8451 31.1125C20.1424 30.9954 20.4423 30.8741 20.7447 30.7484C20.9034 30.6817 21.0328 30.5603 21.1096 30.4062C21.1864 30.2522 21.2055 30.0757 21.1633 29.9088L21.1394 29.8106C20.6422 27.7176 20.3657 25.3609 20.3328 22.8932C20.3328 22.8637 20.3328 22.8336 20.3328 22.804C20.3328 22.6691 20.3328 22.5336 20.3295 22.3987C20.3295 22.3558 20.3295 22.2833 20.3295 22.2398C20.3295 22.2231 20.3295 22.2058 20.3295 22.1891C20.3295 22.0346 20.3295 21.8808 20.3345 21.7258C20.3418 21.302 20.3574 20.8816 20.3791 20.4652C20.5329 17.4873 21.0374 14.6885 21.8411 12.3345C21.8767 12.23 21.8694 12.1156 21.8206 12.0165C21.7719 11.9174 21.6859 11.8416 21.5814 11.806C21.3688 11.7317 21.1566 11.6622 20.9448 11.5975C20.8418 11.5652 20.7302 11.5745 20.6339 11.6234C20.5376 11.6722 20.4642 11.7567 20.4293 11.859C19.5586 14.4153 19.0219 17.4483 18.8781 20.6575C18.8694 20.858 18.8109 21.0531 18.7079 21.2252C18.6048 21.3973 18.4604 21.541 18.2878 21.6432C16.3877 22.77 14.6426 23.9643 13.1349 25.168C12.9824 25.2892 12.7923 25.3533 12.5975 25.3492C12.4027 25.3452 12.2155 25.2732 12.0681 25.1457C10.5571 23.8355 9.28514 22.4138 8.32367 20.9352C6.43473 18.0326 5.9827 15.299 7.0601 13.2411L7.06846 13.2266C7.2052 12.9991 7.3477 12.7748 7.49596 12.5537C8.73055 10.919 11.0286 9.97169 14.073 9.86465C14.2658 9.85796 14.4602 9.85461 14.656 9.85461C16.5254 9.85461 18.5314 10.1629 20.572 10.7517L20.7063 10.7913L20.8094 10.8214C21.2809 10.9626 21.7536 11.1184 22.2274 11.2886L22.2608 11.3009C22.3838 11.3455 22.507 11.391 22.6303 11.4375L22.7463 11.4815L22.8577 11.5244C23.8732 11.918 24.8663 12.3671 25.8324 12.8698C27.6718 13.8187 29.4023 14.9655 30.9932 16.2897C28.1004 16.9527 24.7378 18.2317 21.3573 19.9561C21.2805 19.9951 21.2152 20.0536 21.1681 20.1257C21.121 20.1978 21.0936 20.281 21.0886 20.367C21.0769 20.5767 21.0613 20.9982 21.0502 21.3332C21.0485 21.3812 21.0595 21.4287 21.082 21.4711C21.1045 21.5135 21.1378 21.5492 21.1784 21.5746C21.2191 21.6001 21.2657 21.6144 21.3136 21.6162C21.3615 21.618 21.4091 21.6071 21.4515 21.5847C24.7957 19.8268 28.14 18.5127 31.0082 17.818C31.2667 17.7551 31.4926 17.5983 31.642 17.3781C31.7914 17.1579 31.8535 16.89 31.8164 16.6265C31.7633 16.2444 31.704 15.8686 31.6386 15.4991C31.5582 15.0342 31.3057 14.6165 30.9313 14.3294C29.5437 13.2758 28.0683 12.3432 26.5214 11.5417C25.4705 10.9948 24.3893 10.5084 23.283 10.0849C23.2284 10.064 23.1789 10.0316 23.1379 9.98985C23.0968 9.94813 23.0653 9.89808 23.0453 9.84309C23.0253 9.78809 23.0174 9.72944 23.022 9.67112C23.0267 9.61279 23.0439 9.55615 23.0723 9.50503C24.191 7.50235 25.5248 6.38281 26.819 6.38281H26.8591C28.3891 6.41013 29.9141 8.00302 31.0439 10.7539C31.6152 12.1478 32.0583 13.7518 32.361 15.4969C32.3596 15.4953 32.3581 15.4938 32.3565 15.4925C32.4858 16.2373 32.5895 17.0067 32.667 17.7962L32.6463 17.8085L32.6742 17.8364C32.8044 19.202 32.8567 20.5739 32.8308 21.9454C32.8147 22.8375 32.7673 23.7139 32.6909 24.5731C30.6443 26.2273 28.1143 27.8738 25.3336 29.3479C24.4195 29.8324 23.5054 30.2834 22.6025 30.6988L22.5607 30.7178L22.3528 30.8131C21.6033 31.1521 20.8623 31.4652 20.13 31.7526L20.0062 31.8L19.8524 31.8596C19.7298 31.9068 19.6077 31.9531 19.4862 31.9984L19.3853 32.0363C19.2376 32.0921 19.0905 32.1445 18.9439 32.1969C18.926 32.2036 18.9076 32.2109 18.8881 32.217C17.323 32.7745 15.832 33.1955 14.4732 33.4575C11.1869 34.092 9.63963 33.6069 9.28848 32.9424ZM13.8138 26.5306C15.2691 25.3453 16.9741 24.1628 18.8441 23.0432C18.8842 25.4362 19.1467 27.7333 19.611 29.8084C18.9173 29.5111 18.2271 29.1851 17.5404 28.8305C16.2426 28.1579 14.997 27.3891 13.8138 26.5306ZM23.3633 38.1046C22.6568 38.1952 21.9453 38.2406 21.233 38.2407C18.0712 38.2494 14.9743 37.3439 12.315 35.633C12.2759 35.6071 12.2459 35.5695 12.2294 35.5256C12.2129 35.4817 12.2106 35.4337 12.223 35.3884C12.2353 35.3431 12.2617 35.3029 12.2982 35.2734C12.3347 35.244 12.3796 35.2268 12.4265 35.2244C12.4711 35.2244 12.5129 35.2205 12.5497 35.2177C13.2884 35.1652 14.0231 35.0669 14.7496 34.9233C16.4424 34.5971 18.3241 34.0385 20.2944 33.2858C20.3795 33.2538 20.4737 33.2563 20.557 33.2928C20.6402 33.3292 20.706 33.3967 20.7403 33.4809V33.4843C21.5039 35.3437 22.4436 36.7492 23.4987 37.643C23.5373 37.676 23.5656 37.7195 23.5801 37.7683C23.5945 37.817 23.5946 37.8689 23.5803 37.9176C23.566 37.9664 23.5379 38.01 23.4994 38.0432C23.4609 38.0763 23.4136 38.0977 23.3633 38.1046ZM30.3444 33.6939C29.1655 36.0133 27.7136 37.3151 26.3062 37.2889C24.7768 37.2616 23.2513 35.6687 22.122 32.9178C22.0877 32.8337 22.0877 32.7395 22.122 32.6554C22.1562 32.5713 22.2221 32.504 22.3054 32.4679L22.3416 32.4523C22.4158 32.42 22.4989 32.4143 22.5768 32.4361C24.6893 33.0293 26.7711 33.3388 28.7219 33.3388C28.9337 33.3388 29.144 33.3352 29.3528 33.3282C29.597 33.3192 29.8372 33.3055 30.0735 33.2869C30.123 33.2837 30.1724 33.2936 30.2168 33.3156C30.2612 33.3375 30.2991 33.3708 30.3266 33.4121C30.354 33.4534 30.3701 33.5011 30.3733 33.5506C30.3764 33.6001 30.3664 33.6495 30.3444 33.6939ZM30.8527 31.699C30.3378 31.7727 29.8192 31.8183 29.2993 31.8356C27.9049 31.8743 26.5105 31.7622 25.1402 31.5011C25.1018 31.4941 25.0666 31.4752 25.0395 31.4471C25.0124 31.4189 24.9949 31.383 24.9894 31.3444C24.9838 31.3057 24.9905 31.2663 25.0086 31.2317C25.0267 31.1971 25.0552 31.1691 25.09 31.1515C25.4036 30.9932 25.7173 30.8308 26.0309 30.6642C28.1313 29.5581 30.1517 28.3061 32.0773 26.9176C32.1072 26.8959 32.143 26.8836 32.1799 26.8823C32.2169 26.881 32.2534 26.8908 32.2848 26.9104C32.3162 26.9299 32.3411 26.9584 32.3562 26.9922C32.3714 27.0259 32.3761 27.0634 32.3699 27.0999C32.1406 28.5205 31.7973 29.9204 31.3432 31.2859C31.3075 31.3933 31.2428 31.4888 31.1563 31.5617C31.0697 31.6346 30.9646 31.6822 30.8527 31.699ZM33.2901 33.0093C33.1658 33.142 33.0387 33.2735 32.9094 33.3995C32.6865 33.6248 32.4563 33.8424 32.2188 34.0524C32.1873 34.0804 32.1471 34.0966 32.105 34.0985C32.0629 34.1003 32.0214 34.0876 31.9875 34.0626C31.9536 34.0375 31.9294 34.0015 31.9188 33.9607C31.9083 33.9199 31.9121 33.8767 31.9296 33.8383C31.9537 33.787 31.9777 33.7352 32.0015 33.6828C32.0999 33.4646 32.1956 33.2416 32.2885 33.0137C32.2995 32.9871 32.3164 32.9635 32.3381 32.9446C32.3598 32.9257 32.3855 32.9122 32.4134 32.905C32.6475 32.8452 32.8756 32.7795 33.0978 32.7082C33.1368 32.6944 33.1794 32.6942 33.2185 32.7077C33.2577 32.7212 33.2911 32.7475 33.3134 32.7824C33.3357 32.8173 33.3455 32.8587 33.3413 32.8999C33.3371 32.9411 33.319 32.9796 33.2901 33.0093ZM36.6087 27.7684C36.5296 27.9706 36.4463 28.1711 36.359 28.37C36.3456 28.3973 36.3328 28.4257 36.3183 28.4519C35.7738 29.5007 34.8602 30.3258 33.6396 30.9006C33.5784 30.9297 33.5101 30.9406 33.443 30.932C33.3758 30.9233 33.3125 30.8956 33.2606 30.852C33.2088 30.8084 33.1705 30.7508 33.1505 30.6861C33.1304 30.6214 33.1293 30.5522 33.1474 30.4869C33.5689 28.9537 33.8733 27.3907 34.0582 25.8114C34.0959 25.5035 34.2469 25.2207 34.4818 25.018C34.9834 24.5837 35.4527 24.1499 35.8841 23.719L35.8886 23.7139C35.9372 23.6655 35.9976 23.6304 36.0639 23.6122C36.1301 23.5941 36.1999 23.5934 36.2665 23.6102C36.3331 23.6271 36.3942 23.6609 36.4438 23.7084C36.4934 23.7559 36.5299 23.8154 36.5496 23.8812C36.9755 25.2985 36.9994 26.6182 36.6087 27.7689V27.7684ZM36.9392 20.0297C36.9113 20.0806 36.8705 20.1234 36.821 20.1537C36.7715 20.1841 36.7149 20.201 36.6569 20.2029C36.5988 20.2048 36.5413 20.1915 36.4899 20.1643C36.4386 20.1372 36.3952 20.0971 36.364 20.0481L36.2999 19.9483C35.7899 19.1692 35.2251 18.4273 34.61 17.7282C34.5754 17.6884 34.5531 17.6394 34.5456 17.5872C34.5381 17.535 34.5457 17.4818 34.5677 17.4338C34.5896 17.3859 34.6248 17.3452 34.6692 17.3168C34.7135 17.2883 34.7652 17.2732 34.8179 17.2732H34.8234C36.3027 17.2732 37.078 17.6384 37.3149 18.085C37.5083 18.458 37.4492 19.1109 36.9392 20.0303V20.0297ZM37.7385 22.213C37.7379 22.2367 37.7292 22.2594 37.7138 22.2774C37.6985 22.2955 37.6775 22.3077 37.6543 22.3121C37.631 22.3165 37.607 22.3129 37.5861 22.3018C37.5653 22.2906 37.5488 22.2727 37.5395 22.251L37.4838 22.1177C37.4661 22.0777 37.4593 22.0337 37.4642 21.9902C37.4691 21.9467 37.4855 21.9053 37.5117 21.8702L37.5719 21.791C37.6443 21.6968 37.7485 21.7107 37.7485 21.8155C37.7463 21.9532 37.743 22.0725 37.7385 22.2136V22.213Z" fill="white"/>
</svg>

<svg xmlns="http://www.w3.org/2000/svg" width="43" height="43" fill="none"><circle cx="21.236" cy="21.715" r="21" fill="#7B2BF9"/><path fill="#fff" d="M38.846 17.977a18.014 18.014 0 0 0-12.5-13.52A18.003 18.003 0 0 0 8.503 8.987a18.245 18.245 0 0 0-2.204 2.67c-.19.254-.362.522-.514.802A18.019 18.019 0 0 0 20 39.672a18.004 18.004 0 0 0 17.72-10.693c.108-.223.203-.452.284-.686a18.195 18.195 0 0 0 .853-10.27c-.003-.015-.006-.03-.011-.046Zm-6.243-8.234a16.491 16.491 0 0 1 3.945 5.777.279.279 0 0 1-.308.379 8.326 8.326 0 0 0-1.598-.112.832.832 0 0 1-.836-.683c-.321-1.801-.786-3.464-1.382-4.916a13.373 13.373 0 0 0-.103-.245.177.177 0 0 1 .174-.248c.04.003.079.02.108.048Zm1.713 10.564a.192.192 0 0 1 .347-.116 14.489 14.489 0 0 1 .853 1.33.416.416 0 0 1-.055.486c-.193.212-.403.43-.63.658-.083.083-.167.167-.253.249a.167.167 0 0 1-.279-.125 37.904 37.904 0 0 0 .015-2.482h.002ZM11.646 8.27a16.387 16.387 0 0 1 9.587-3.067c.91 0 1.82.075 2.718.224a.278.278 0 0 1 .128.492c-.862.677-1.663 1.677-2.372 2.975a.773.773 0 0 1-.888.374c-2.349-.662-4.66-.973-6.797-.898-.75.024-1.496.103-2.234.237a.187.187 0 0 1-.142-.337ZM9.288 32.942c-.346-.655.102-2.174 2.382-4.479a.568.568 0 0 0-.051-.845l-.272-.216a.57.57 0 0 0-.761.04l-.09.089c-1.139 1.17-1.936 2.252-2.383 3.226a.39.39 0 0 1-.676.053 16.4 16.4 0 0 1-2.718-9.088c0-1.159.12-2.314.359-3.447a.167.167 0 0 1 .324-.015c.343 1.132.9 2.302 1.673 3.485 1.037 1.594 2.405 3.125 4.026 4.53.553.48 1.138.944 1.747 1.394 1.27.93 2.609 1.762 4.006 2.486.633.33 1.25.643 1.88.927a1.43 1.43 0 0 0 1.111.03c.297-.117.597-.238.9-.364a.719.719 0 0 0 .418-.84l-.024-.097c-.497-2.093-.773-4.45-.806-6.918v-.089c0-.135 0-.27-.003-.405V22.189c0-.154 0-.308.005-.463.007-.424.022-.844.044-1.26.154-2.979.658-5.778 1.462-8.132a.416.416 0 0 0-.26-.528 16.857 16.857 0 0 0-.636-.208.413.413 0 0 0-.516.261c-.87 2.556-1.407 5.59-1.55 8.798a1.207 1.207 0 0 1-.591.986c-1.9 1.127-3.645 2.321-5.153 3.525a.835.835 0 0 1-1.067-.022c-1.51-1.31-2.783-2.732-3.744-4.21-1.89-2.903-2.341-5.637-1.264-7.695l.008-.014c.137-.228.28-.452.428-.673 1.235-1.635 3.533-2.582 6.577-2.69.193-.006.387-.01.583-.01 1.87 0 3.875.309 5.916.898l.134.04.103.03c.472.14.945.296 1.418.467l.034.012c.123.044.246.09.37.136l.115.045.112.042a29.69 29.69 0 0 1 2.974 1.346 28.47 28.47 0 0 1 5.161 3.42c-2.893.663-6.255 1.942-9.636 3.666a.492.492 0 0 0-.268.411c-.012.21-.028.631-.039.966a.273.273 0 0 0 .401.252c3.345-1.758 6.689-3.072 9.557-3.767a1.072 1.072 0 0 0 .808-1.192 30.769 30.769 0 0 0-.177-1.127 1.877 1.877 0 0 0-.708-1.17 30.48 30.48 0 0 0-4.41-2.787 31.099 31.099 0 0 0-3.238-1.457.408.408 0 0 1-.21-.58c1.118-2.003 2.452-3.122 3.746-3.122h.04c1.53.027 3.055 1.62 4.185 4.37.571 1.395 1.014 2.999 1.317 4.744a.037.037 0 0 0-.005-.005c.13.745.233 1.515.311 2.304l-.02.012.027.028a36.11 36.11 0 0 1 .157 4.11 37.259 37.259 0 0 1-.14 2.627c-2.047 1.654-4.577 3.3-7.357 4.775-.915.484-1.829.935-2.732 1.35l-.041.02-.208.095c-.75.34-1.49.652-2.223.94l-.124.047-.154.06-.366.138-.1.038c-.148.056-.296.108-.442.16-.018.008-.036.015-.056.021-1.565.558-3.056.979-4.415 1.24-3.286.635-4.833.15-5.185-.515Zm4.526-6.411c1.455-1.186 3.16-2.368 5.03-3.488.04 2.393.303 4.69.767 6.765a31.904 31.904 0 0 1-2.07-.977 29.312 29.312 0 0 1-3.727-2.3Zm9.55 11.574c-.707.09-1.419.136-2.131.136a16.399 16.399 0 0 1-8.918-2.608.223.223 0 0 1 .112-.409 17.883 17.883 0 0 0 2.323-.301c1.692-.326 3.574-.885 5.544-1.637a.349.349 0 0 1 .446.195v.003c.764 1.86 1.704 3.265 2.759 4.159a.264.264 0 0 1-.136.462Zm6.98-4.411c-1.178 2.32-2.63 3.621-4.038 3.595-1.53-.027-3.055-1.62-4.184-4.371a.347.347 0 0 1 .183-.45l.037-.016a.352.352 0 0 1 .235-.016c2.112.593 4.194.903 6.145.903a17.309 17.309 0 0 0 1.352-.052.282.282 0 0 1 .27.407Zm.509-1.995c-.515.074-1.034.12-1.554.137a19.352 19.352 0 0 1-4.159-.335.186.186 0 0 1-.05-.35c.314-.158.627-.32.94-.487a50.843 50.843 0 0 0 6.047-3.746.186.186 0 0 1 .293.182c-.23 1.42-.573 2.82-1.027 4.186a.614.614 0 0 1-.49.413Zm2.437 1.31c-.124.133-.251.264-.38.39a14.24 14.24 0 0 1-.691.653.184.184 0 0 1-.29-.214l.073-.155c.098-.218.194-.441.286-.67a.185.185 0 0 1 .125-.108c.235-.06.463-.126.685-.197a.183.183 0 0 1 .192.301Zm3.319-5.24c-.08.202-.163.402-.25.601-.013.027-.026.056-.04.082-.545 1.049-1.459 1.874-2.68 2.449a.353.353 0 0 1-.492-.414c.422-1.533.726-3.096.911-4.676.038-.308.189-.59.424-.793.501-.434.97-.868 1.402-1.299l.005-.005a.398.398 0 0 1 .66.167c.426 1.418.45 2.737.06 3.888Zm.33-7.74a.333.333 0 0 1-.575.02l-.064-.1a19.67 19.67 0 0 0-1.69-2.22.274.274 0 0 1 .208-.456h.005c1.48 0 2.255.365 2.492.812.193.373.134 1.026-.376 1.945Zm.8 2.184a.103.103 0 0 1-.085.1.104.104 0 0 1-.115-.062l-.055-.133a.247.247 0 0 1 .028-.248l.06-.079c.072-.094.176-.08.176.024-.002.138-.005.258-.01.399v-.001Z"/></svg>
